!!!!SEGMENT: Sil2003-Tota_pulchra_es.krn
!!!id: Sil2003
!!!AGN: Motet
!!!SCT: Lowinsky (1968)
!!!voices: 4
!!!COM: Andreas de Silva
!!!OTL: Tota pulchra es
**kern	**kern	**kern	**kern
*part4	*part3	*part2	*part1
*staff4	*staff3	*staff2	*staff1
*I"Bassus	*I"Tenor	*I"Altus	*I"Superius
*I'B	*I'T	*I'A	*I'S
*clefF4	*clefGv2	*clefGv2	*clefG2
*k[b-]	*k[b-]	*k[b-]	*k[b-]
*F:	*F:	*F:	*F:
*M2/1	*M2/1	*M2/1	*M2/1
*met(C|)	*met(C|)	*met(C|)	*met(C|)
!!section: Prima pars: Tota pulchra es
!!!OMD: Prima pars: Tota pulchra es
=1	=1	=1	=1
0C	0c	0r	0r
=2	=2	=2	=2
1C	1A	0r	0r
1C	1G	.	.
=3	=3	=3	=3
1F	2.A	0c	0cc
.	8GL	.	.
.	8FJ	.	.
2E	2G	.	.
[2F	2A	.	.
=4	=4	=4	=4
4F]	2F	1c	1a
4G	.	.	.
4A	2.f	.	.
4B-y	.	.	.
1c	.	1c	1g
.	4e	.	.
.	4e	.	.
.	4d	.	.
=5	=5	=5	=5
1F	2f	1.f	1.a
.	1F	.	.
2r	.	.	.
2C	2c	2e	2g
=6	=6	=6	=6
2D	2A	1d	2.f
2BB-y	2B-y	.	.
.	.	.	8eL
.	.	.	8dJ
2.C	1G	2c	2e
.	.	[2e	[2g
4D	.	.	.
=7	=7	=7	=7
2E	1r	4e]	2g]
.	.	4d	.
2F	.	1c	4f
.	.	.	4e
1G	1g	.	1d
.	.	2Bni	.
=8	=8	=8	=8
1C	1e	2.c	2c
.	.	.	2.cc
.	.	4B-y	.
2.F	2f	2A	.
.	.	.	4b-y
.	2F	[2c	4a
4E	.	.	4g
=9	=9	=9	=9
4E	1c	2c]	4a
4D	.	.	4g
2F	.	2A	4f
.	.	.	4e
2BB-y	2d	4B-y	4d
.	.	4A	4c
2D	2B-y	4G	[2f
.	.	4F	.
=10	=10	=10	=10
1C	1c	1G	4f]
.	.	.	4e
.	.	.	4e
.	.	.	4d
[1D	1A	1F	2f
.	.	.	[2a
=11	=11	=11	=11
1D]	1F	1r	4a]
.	.	.	4g
.	.	.	4a
.	.	.	8gL
.	.	.	8fJ
[1C	1G	[1c	4e
.	.	.	4f
.	.	.	4g
.	.	.	4a
=12	=12	=12	=12
2C]	2r	1c]	4g
.	.	.	4c
1F	2A	.	2cc
.	2F	1c	2a
2E	2G	.	[2cc
=13	=13	=13	=13
0F	1A	1c	4cc]
.	.	.	4b-y
.	.	.	4a
.	.	.	4g
.	1c	[1f	1a
=14	=14	=14	=14
1BB-y	1d	2f]	1b-y
.	.	4e	.
.	.	4d	.
[1C	1c	1e	2g
.	.	.	[2cc
=15	=15	=15	=15
1C]	1.G	1c	2cc]
.	.	.	4b-y
.	.	.	4a
2r	.	[1g	2b-y
[2C	[2c	.	[2g
=16	=16	=16	=16
2C]	4c]	1g]	2g]
.	4B-y	.	.
2.c	2c	.	4f
.	.	.	4e
.	1G	1g	1d
4Bni	.	.	.
4Bni	.	.	.
8AL	.	.	.
8BniJ	.	.	.
=17	=17	=17	=17
2c	2r	1g	2c
2C	2G	.	1cc
1F	1A	[1f	.
.	.	.	4b-y
.	.	.	4a
=18	=18	=18	=18
1D	1F	2f]	2.b-y
.	.	4e	.
.	.	4d	4a
2C	2G	2e	2.cc
[2F	2A	[2c	.
.	.	.	4b-y
=19	=19	=19	=19
2F]	2F	4c]	2a
.	.	4d	.
1E	2G	4e	1g
.	.	4f	.
.	2r	1g	.
2C	2c	.	4f
.	.	.	4e
=20	=20	=20	=20
2D	2F	2f	4d
.	.	.	4c
2E	2G	2e	1cc
2F	2A	1d	.
2G	2B-y	.	2bni
=21	=21	=21	=21
2C	2G	1c	2cc
1F	2A	.	2.a
.	2F	2A	.
.	.	.	4f
2BB-y	[2f	[2d	[2b-y
=22	=22	=22	=22
1F	4f]	4d]	4b-]
.	4e	4c	4a
.	2f	2A	1a
1G	[1d	1B-y	.
.	.	.	2g
=23	=23	=23	=23
1D	1d]	1A	2a
.	.	.	1f
[1F	1c	1r	.
.	.	.	4e
.	.	.	4d
=24	=24	=24	=24
2F]	1F	1A	2c
4E	.	.	2.cc
4D	.	.	.
1C	1G	[1c	.
.	.	.	4b-y
.	.	.	4a
.	.	.	4g
=25	=25	=25	=25
1F	1r	1c]	4a
.	.	.	4g
.	.	.	4f
.	.	.	4e
2G	1G	1B-y	2d
2E	.	.	[2g
=26	=26	=26	=26
2F	0c	1A	4g]
.	.	.	4f
2F	.	.	1f
[1C	.	[1G	.
.	.	.	4e
.	.	.	4d
=27	=27	=27	=27
1C]	2.c	1G]	2.e
.	4B-y	.	4d
1F	2A	2F	2f
.	2F	2A	[2cc
=28	=28	=28	=28
1C	2G	2G	4cc]
.	.	.	4b-y
.	2E	2.c	4a
.	.	.	4g
1D	1F	.	4b-y
.	.	4Bni	4a
.	.	4Bni	4g
.	.	8AL	4f
.	.	8BniJ	.
=29	=29	=29	=29
[0C	1G	[0cl	2e
.	.	.	1g
.	2E	.	.
.	2G	.	[2c
=30	=30	=30	=30
1C]	2C	0c_	4c]
.	.	.	4d
.	2.c	.	4e
.	.	.	4f
2.c	.	.	4g
.	4B-y	.	4c
.	4A	.	[2cc
4B-y	4G	.	.
=31	=31	=31	=31
4A	2F	0c_	4cc]
4G	.	.	4b-y
1F	1A	.	4a
.	.	.	4g
.	.	.	4f
.	.	.	4e
2E	2G	.	[2g
=32	=32	=32	=32
1F	2A	0c_	2g]
.	4G	.	1f
.	4F	.	.
1C	1G	.	.
.	.	.	2e
=33	=33	=33	=33
00Fl	00Fl	00c]	00fl
==	==	==	==
*-	*-	*-	*-
!!!system-decoration: [*]
!!!RDF**kern: i = editorial accidental
!!!RDF**kern: l = terminal long
!!!ENC: Benjamin Ory
!!!END: 2021/5/19
!!!EED: Benjamin Ory
!!!EEV: 2021/05/19
!!!YEC: Copyright 2021 Benjamin Ory, All Rights Reserved
!!!ONB: Translated from MusicXML on 2021/05/19
